!!!COM: Haydn, Franz Joseph
!!!OTL: String Quartet in G Minor
!!!OPS: Opus 20
!!!ONM: No. 3
!!!OMD: Poco adagio
!!!OMV: 3
!!!SCT: H III:33
!!!SCA: Thematisch-bibliographisches Werkevererzeichnis (A. van Hoboken)
!!!YOR: Pleyel Edition, volume 3
!!!ENC: Frances Bennion
!!!CDT: 1732/3/31/-1809/5/31/
!!!CNT: Oesterreich
!!!YEC: Copyright (c) 1994, 2000 Center for Computer Assisted Research in the Humanities
!!!YEM: Rights to all derivative editions reserved.
!!!YEM: Refer to licensing agreement for further details.
!!!YEN: United States of America
**kern	**kern	**kern	**kern
*k[f#]	*k[f#]	*k[f#]	*k[f#]
*G:	*G:	*G:	*G:
*clefF4	*clefC3	*clefF	*clefF
*M3/4	*M3/4	*M3/4	*M3/4
2G	[2.d	2B	4g
.	.	.	4b
4G	.	4b	4dd
=2	=2	=2	=2
2F#	2.d]	2a	8dd
.	.	.	8cc
.	.	.	8a
.	.	.	8cc
4G	.	4b	4b
=3	=3	=3	=3
2c	4r	4g	4ee
.	4..dd	4a	4ff#
4B	.	4g	8.gg
.	16g	.	16b
=4	=4	=4	=4
4F#	4a	4d	4cc
4G	4g	4d	4b
4r	4r	4r	4r
=5	=5	=5	=5
4c	4e	2e	4a
4A	4c	.	4cc
4G	8.B	4b	4ee
.	16c	.	.
=6	=6	=6	=6
4F#	4d	4a	4dd
4D	4a	4f#	4cc
8E	[4g	8g	8b
8BB	.	8dd	8gg
=7	=7	=7	=7
4C	4g]	8cc	8ee
.	.	16b	16dd
.	.	16a	16cc
4D	4d	4g	4b
4D	4d	16b	16dd
.	.	16a	16cc
.	.	16g	16b
.	.	16f#	16a
=8	=8	=8	=8
4.G	4d	4f#	4a
.	2r	8g	8b
8G	.	4.r	4.r
8D	.	.	.
8BB	.	.	.
=9	=9	=9	=9
2GG	2.B	[2.d	4G
.	.	.	4B
4GG	.	.	4d
=10	=10	=10	=10
2FF#	2A	2.d]	8d
.	.	.	8c
.	.	.	8A
.	.	.	8c
4GG	4B	.	4B
=11	=11	=11	=11
2C	4G	4r	4e
.	4A	4..d	4f#
4BB	4G	.	16.g
.	.	.	32a
.	.	.	16.b
.	.	16G	.
.	.	.	32B
=12	=12	=12	=12
4FF#	4D	4A	4c
4GG	4D	4G	4B
4r	4r	4r	4r
=13	=13	=13	=13
16r	[2.dd	2.gg	2.bb
16F#	.	.	.
16G	.	.	.
16D	.	.	.
16C	.	.	.
16BB	.	.	.
16AA	.	.	.
16GG	.	.	.
16FF#	.	.	.
16GG	.	.	.
16AA	.	.	.
16GG	.	.	.
=14	=14	=14	=14
16r	2.dd]	2.ff#	2.aa
16c#	.	.	.
16d	.	.	.
16A	.	.	.
16G	.	.	.
16F#	.	.	.
16E	.	.	.
16D	.	.	.
16C#	.	.	.
16D	.	.	.
16E	.	.	.
16D	.	.	.
=15	=15	=15	=15
16r	2.a	2.ee	2.gg
16G#	.	.	.
16A	.	.	.
16E	.	.	.
16D	.	.	.
16C#	.	.	.
16BB	.	.	.
16AA	.	.	.
16GG#	.	.	.
16AA	.	.	.
16BB	.	.	.
16AA	.	.	.
=16	=16	=16	=16
16r	2.a	2.dd	2.ff#
16c#	.	.	.
16d	.	.	.
16A	.	.	.
16G	.	.	.
16F#	.	.	.
16E	.	.	.
16D	.	.	.
16C#	.	.	.
16D	.	.	.
16E	.	.	.
16D	.	.	.
=17	=17	=17	=17
16r	4g	2.b	4ee
16F#	.	.	.
16G	.	.	.
16D#	.	.	.
16E	2b	.	4.gg
16EE	.	.	.
16GG	.	.	.
16BB	.	.	.
16E	.	.	.
16F#	.	.	.
16G	.	.	8ee
16G#	.	.	.
=18	=18	=18	=18
16r	2a	2e	2cc#
16G#	.	.	.
16A	.	.	.
16E	.	.	.
16D	.	.	.
16C#	.	.	.
16BB	.	.	.
16AA	.	.	.
16GG#	4r	4r	4r
16AA	.	.	.
16BB	.	.	.
16AA	.	.	.
=19	=19	=19	=19
16A	4r	[2.a	4a
16c#	.	.	.
16e	.	.	.
16c#	.	.	.
16e	4C#	.	4gg
16c#	.	.	.
16e	.	.	.
16c#	.	.	.
16A	4D	.	4ff#
16d	.	.	.
16f#	.	.	.
16d	.	.	.
=20	=20	=20	=20
16A	4r	2.a]	4a
16e	.	.	.
16g	.	.	.
16e	.	.	.
16g	4A	.	4ccc#
16e	.	.	.
16g	.	.	.
16e	.	.	.
16A	4d	.	4ddd
16d	.	.	.
16f#	.	.	.
16d	.	.	.
=21	=21	=21	=21
16A	4r	[2.a	4a
16c#	.	.	.
16e	.	.	.
16c#	.	.	.
16e	4C#	.	4gg
16c#	.	.	.
16e	.	.	.
16c#	.	.	.
16A	4D	.	4ff#
16d	.	.	.
16f#	.	.	.
16d	.	.	.
=22	=22	=22	=22
16A	4r	2.a]	4a
16e	.	.	.
16g	.	.	.
16e	.	.	.
16g	4A	.	4ccc#
16e	.	.	.
16g	.	.	.
16e	.	.	.
16A	4d	.	4ddd
16d	.	.	.
16f#	.	.	.
16d	.	.	.
=23	=23	=23	=23
4G	4G	8.b	16r
.	.	.	16aa#
.	.	.	16bb
.	.	16dd#	16ff#
2r	2r	4ee	16gg
.	.	.	16dd#
.	.	.	16ee
.	.	.	16b
.	.	4r	16a
.	.	.	16g
.	.	.	16f#
.	.	.	16e
=24	=24	=24	=24
4F#	4F#	8.a	16r
.	.	.	16gg#
.	.	.	16aa
.	.	16cc#	16ee
2r	2r	4dd	16ff#
.	.	.	16cc#
.	.	.	16dd
.	.	.	16ccc#
.	.	4r	8ddd
.	.	.	8r
=25	=25	=25	=25
4G	2r	2r	16r
.	.	.	16A#
.	.	.	16B
.	.	.	16gg
4A	.	.	4a
4AA	4g	4cc#	8.ee
.	.	.	32dd
.	.	.	32ee
=26	=26	=26	=26
2.BB	2f#	16dd	2ddd
.	.	16ee	.
.	.	16ff#	.
.	.	16cc#	.
.	.	16dd	.
.	.	16a#	.
.	.	16b	.
.	.	16f#	.
.	4e	16g#	16ccc#
.	.	16b	16bb
.	.	16cc#	16aa
.	.	16dd	16gg#
=27	=27	=27	=27
[4AA	[4e	4dd	4gg#
8AA]	8e]	8cc#	24aa
.	.	.	24bb
.	.	.	24gg#
4.r	4.r	4.r	24aa
.	.	.	24bb
.	.	.	24gg#
.	.	.	24aa
.	.	.	24bb
.	.	.	24gg#
.	.	.	24aa
.	.	.	24bb
.	.	.	24gg#
=28	=28	=28	=28
2.r	2.r	2.r	4.aa
.	.	.	8aa
.	.	.	8ccc#
.	.	.	8eee
=29	=29	=29	=29
4r	4r	4r	[6..ggg
2c#	[2a	2ee	.
.	.	.	48ggg]
.	.	.	16fff#
.	.	.	16eee
.	.	.	16ddd
.	.	.	16ccc#
.	.	.	16bb
.	.	.	16aa
.	.	.	16gg
=30	=30	=30	=30
16r	2.a]	2.dd	2.ff#
16c#	.	.	.
16d	.	.	.
16A	.	.	.
16G	.	.	.
16F#	.	.	.
16E	.	.	.
16D	.	.	.
16C#	.	.	.
16D	.	.	.
16E	.	.	.
16D	.	.	.
=31	=31	=31	=31
16r	2b	2.ff#	2.ddd
16A#	.	.	.
16B	.	.	.
16F#	.	.	.
16E	.	.	.
16D	.	.	.
16C#	.	.	.
16BB	.	.	.
16AA#	4b	.	.
16BB	.	.	.
16C#	.	.	.
16BB	.	.	.
=32	=32	=32	=32
16r	2g	2.gg	2.bb
16G	.	.	.
16A	.	.	.
16B	.	.	.
16c#	.	.	.
16d	.	.	.
16e	.	.	.
16f#	.	.	.
16g	4ee	.	.
16f#	.	.	.
16e	.	.	.
16d	.	.	.
=33	=33	=33	=33
2c#	16ee	16gg	[2aa
.	16dd	16ff#	.
.	16cc#	16ee	.
.	16b	16dd	.
.	16a	16cc#	.
.	16g	16b	.
.	16f#	16a	.
.	16e	16g	.
4d	8d	8f#	16aa]
.	.	.	16ccc#
.	8dd	8ff#	16ddd
.	.	.	16bb
=34	=34	=34	=34
2c#	16ee	16gg	[2aa
.	16dd	16ff#	.
.	16cc#	16ee	.
.	16b	16dd	.
.	16a	16cc#	.
.	16g	16b	.
.	16f#	16a	.
.	16e	16g	.
4d	8d	8f#	24aa]
.	.	.	24bb
.	.	.	24ccc#
.	8dd	8ff#	24ddd
.	.	.	24ccc#
.	.	.	24bb
=35	=35	=35	=35
16c#	2ee	2gg	2aa
16d	.	.	.
16e	.	.	.
16f#	.	.	.
16g	.	.	.
16a	.	.	.
16b	.	.	.
16cc#	.	.	.
8dd	8dd	8ff#	16aa
.	.	.	16dd
8dd	8f#	8dd	16ddd
.	.	.	16aa
=36	=36	=36	=36
[2.dd	4g	4g	16bb
.	.	.	16dd
.	.	.	16ddd
.	.	.	16bb
.	4f#	2r	16aa
.	.	.	16ff#
.	.	.	16ee
.	.	.	16dd
.	8r	.	16cc#
.	.	.	16dd
.	8f#	.	16ddd
.	.	.	16aa
=37	=37	=37	=37
2dd]	4g	2r	16bb
.	.	.	16dd
.	.	.	16ddd
.	.	.	16bb
.	4f#	.	16aa
.	.	.	16ff#
.	.	.	16ee
.	.	.	16dd
8r	8r	8r	16cc#
.	.	.	16dd
8F#	8f#	8f#	16aa
.	.	.	16a
=38	=38	=38	=38
4G	4g	4g	16a#
.	.	.	16b
.	.	.	16cc
.	.	.	16cc#
2r	2r	2r	16dd
.	.	.	16ee
.	.	.	16ff
.	.	.	16ff#
.	.	.	16gg
.	.	.	16gg#
.	.	.	16aa
.	.	.	16aa#
=39	=39	=39	=39
2.r	2.r	2.r	4bb
.	.	.	4r
.	.	.	8.G 8.b
.	.	.	16G 16b
=40	=40	=40	=40
2r	2r	2r	4G 4b
.	.	.	4r
4AA	4G	8.c#	24G
.	.	.	24c#
.	.	.	24e
.	.	.	24g
.	.	.	24e
.	.	16e	.
.	.	.	24c#
=41	=41	=41	=41
4D	4F#	4d	16d
.	.	.	16d
.	.	.	16d
.	.	.	16d
4r	4r	4r	16f#
.	.	.	16d
.	.	.	16d
.	.	.	16d
4AA	4G	8.c#	24G
.	.	.	24c#
.	.	.	24e
.	.	.	24g
.	.	.	24e
.	.	16e	.
.	.	.	24c#
=42	=42	=42	=42
4D	4F#	4d	16d
.	.	.	16d
.	.	.	16d
.	.	.	16d
4r	4r	4r	16f#
.	.	.	16d
.	.	.	16d
.	.	.	16d
4AA	4G	8.c#	24G
.	.	.	24c#
.	.	.	24e
.	.	.	24g
.	.	.	24e
.	.	16e	.
.	.	.	24c#
=43	=43	=43	=43
2DD	4G	4e	4c#
.	4F#	4d	4d
4r	4r	4r	4r
=44	=44	=44	=44
2D	4d	4r	2.r
.	4f#	4A	.
4D	4a	4f#	.
=45	=45	=45	=45
2C#	8a	2e 2A	2.r
.	8g	.	.
.	8e	.	.
.	8g	.	.
4D	4f#	4f#	.
=46	=46	=46	=46
2G	4b	4d	2.r
.	4cc#	4e	.
4F#	16.dd	4A	.
.	32ee	.	.
.	16.ff#	.	.
.	32f#	.	.
=47	=47	=47	=47
4C#	4g	4A	2.r
4D	4f#	4A	.
4r	4r	4r	.
=48	=48	=48	=48
16r	[2.a	2.f	2.dd
16c#	.	.	.
16d	.	.	.
16A	.	.	.
16G	.	.	.
16F	.	.	.
16E	.	.	.
16D	.	.	.
16C#	.	.	.
16D	.	.	.
16E	.	.	.
16D	.	.	.
=49	=49	=49	=49
16r	2.a]	[2.dd	2.ff
16c#	.	.	.
16d	.	.	.
16e	.	.	.
16f	.	.	.
16g	.	.	.
16f	.	.	.
16e	.	.	.
16d	.	.	.
16c	.	.	.
16B	.	.	.
16A	.	.	.
=50	=50	=50	=50
4G#	4b 4e	4dd]	4ee
2r	2r	2r	2r
=51	=51	=51	=51
4A	2A	2c	2.r
4c	.	.	.
4e	4A	4c	.
=52	=52	=52	=52
8e	2G#	2B	2.r
8d	.	.	.
8B	.	.	.
8d	.	.	.
4c	4A	4c	.
=53	=53	=53	=53
4f	4D	4A	2.r
4e	4C	4A	.
16d	4r	4r	.
16c	.	.	.
16B	.	.	.
16A	.	.	.
=54	=54	=54	=54
8.B	4E	4G#	2.r
32c	.	.	.
32d	.	.	.
4c	4A	4A	.
4r	4r	4r	.
=55	=55	=55	=55
2.A	2.c	2.e	16r
.	.	.	16gg#
.	.	.	16aa
.	.	.	16ee
.	.	.	16dd
.	.	.	16cc
.	.	.	16b
.	.	.	16a
.	.	.	16g#
.	.	.	16a
.	.	.	16b
.	.	.	16a
=56	=56	=56	=56
2.G	2.c#	2.e	16r
.	.	.	16gg#
.	.	.	16aa
.	.	.	16ee
.	.	.	16dd
.	.	.	16cc#
.	.	.	16b
.	.	.	16a
.	.	.	16g#
.	.	.	16a
.	.	.	16b
.	.	.	16a
=57	=57	=57	=57
2.F#	2.c#	2.e	16r
.	.	.	16aa#
.	.	.	16ccc#
.	.	.	16ee
.	.	.	16gg
.	.	.	16cc#
.	.	.	16ee
.	.	.	16a#
.	.	.	16cc#
.	.	.	16g
.	.	.	16f#
.	.	.	16e
=58	=58	=58	=58
2.B	2.d	4d	16r
.	.	.	16aa#
.	.	.	16bb
.	.	.	16ff#
.	.	2f#	16ee
.	.	.	16dd
.	.	.	16cc#
.	.	.	16b
.	.	.	16a#
.	.	.	16b
.	.	.	16cc#
.	.	.	16b
=59	=59	=59	=59
2.A	2.d#	2.f#	16r
.	.	.	16aa#
.	.	.	16bb
.	.	.	16ff#
.	.	.	16ee
.	.	.	16dd#
.	.	.	16cc#
.	.	.	16b
.	.	.	16a#
.	.	.	16b
.	.	.	16cc#
.	.	.	16b
=60	=60	=60	=60
2.G	2.B	2.e	16r
.	.	.	16aa#
.	.	.	16bb
.	.	.	16ff#
.	.	.	16gg
.	.	.	16dd#
.	.	.	16ee
.	.	.	16b
.	.	.	16a
.	.	.	16g
.	.	.	16f#
.	.	.	16e
=61	=61	=61	=61
2.G#	2.d	2.f	16r
.	.	.	16bb
.	.	.	16ddd
.	.	.	16bb
.	.	.	16aa
.	.	.	16gg#
.	.	.	16bb
.	.	.	16ff
.	.	.	16ee
.	.	.	16dd
.	.	.	16cc
.	.	.	16b
=62	=62	=62	=62
2.A	2.c	2.e	16r
.	.	.	16gg#
.	.	.	16aa
.	.	.	16ee
.	.	.	16dd
.	.	.	16cc
.	.	.	16b
.	.	.	16a
.	.	.	16g#
.	.	.	16a
.	.	.	16b
.	.	.	16a
=63	=63	=63	=63
2.F	2.A	2.d#	16r
.	.	.	16bb
.	.	.	16ccc
.	.	.	16gg#
.	.	.	16aa
.	.	.	16ee
.	.	.	16ff
.	.	.	16dd#
.	.	.	16ee
.	.	.	16cc
.	.	.	16b
.	.	.	16a
=64	=64	=64	=64
4E	4B	4e	16g#
.	.	.	16dd#
.	.	.	16ee
.	.	.	16b
2r	2r	2r	16a
.	.	.	16g#
.	.	.	16f#
.	.	.	16e
.	.	.	16d#
.	.	.	16e
.	.	.	16g#
.	.	.	16b
=65	=65	=65	=65
16r	16r	2.r	4ee
16EE	16E	.	.
16GG#	16G#	.	.
16BB	16B	.	.
16E	16e	.	2r
16D#	16d#	.	.
16E	16e	.	.
16F	16f	.	.
16G	16g	.	.
16F	16f	.	.
16E	16e	.	.
16D	16d	.	.
=66	=66	=66	=66
2C	2c	2.G 2.e	4cc
.	.	.	4ee
4C	4c	.	4gg
=67	=67	=67	=67
2BB	2.g	2d	8gg
.	.	.	8ff
.	.	.	8dd
.	.	.	8ff
4C	.	4e	4ee
=68	=68	=68	=68
2F	4f	4c	4aa
.	4..g	4d	4bb
4E	.	4G	16.ccc
.	.	.	32ddd
.	.	.	16.eee
.	16c	.	.
.	.	.	32ee
=69	=69	=69	=69
4BB	4d	4G	4ff
4C	4c	4G	4ee
4r	4r	4r	4r
=70	=70	=70	=70
4c	2.c	16c	2.r
.	.	16e	.
.	.	16g	.
.	.	16e	.
4e	.	16g	.
.	.	16e	.
.	.	16g	.
.	.	16e	.
4g	.	16g	.
.	.	16e	.
.	.	16g	.
.	.	16e	.
=71	=71	=71	=71
4.g	8B-	16B-	2.r
.	.	16d	.
.	8B-	16g	.
.	.	16d	.
.	8B-	16g	.
.	.	16d	.
8f	8B-	16g	.
.	.	16d	.
8e	8B-	16g	.
.	.	16d	.
8d	8B-	16g	.
.	.	16d	.
=72	=72	=72	=72
4.c#	8A	16A	16r
.	.	16e	16cc#
.	8A	16g	16ee
.	.	16e	16dd
.	8A	16g	16cc#
.	.	16e	16b-
8e	8A	16g	16a
.	.	16e	16g
8f	8A	16g	16f
.	.	16e	16e
8g	8A	16g	16d
.	.	16e	16c#
=73	=73	=73	=73
8f	8D	16A	16r
.	.	16d	16ccc#
16e	8D	16f	16ddd
16d	.	16d	16aa
4d	8D	16f	16gg
.	.	16d	16ff
.	8D	16f	16ee
.	.	16d	16dd
4r	8D	16f	16cc#
.	.	16d	16dd
.	8D	16f	16ee
.	.	16d	16dd
=74	=74	=74	=74
4d	8d	16A	2.r
.	.	16f	.
.	8d	16a	.
.	.	16f	.
4f	8d	16a	.
.	.	16f	.
.	8d	16a	.
.	.	16f	.
4a	8d	16a	.
.	.	16f	.
.	8d	16a	.
.	.	16f	.
=75	=75	=75	=75
4.a	8c	16c	2.r
.	.	16e	.
.	8c	16a	.
.	.	16e	.
.	8c	16a	.
.	.	16e	.
8g	8c	16a	.
.	.	16e	.
8f#	8c	16a	.
.	.	16e	.
8e	8c	16a	.
.	.	16e	.
=76	=76	=76	=76
4d#	8B	16B	16r
.	.	16f#	16dd#
.	8B	16a	16ff#
.	.	16f#	16ee
4f#	8B	16a	16dd#
.	.	16f#	16ccc
.	8B	16a	16bb
.	.	16f#	16aa
4a	8B	16a	16gg
.	.	16f#	16ff#
.	8B	16a	16ee
.	.	16f#	16dd#
=77	=77	=77	=77
8g	8E	16B	16r
.	.	16e	16ddd#
8g	8E	16g	16eee
.	.	16e	16bb
8g	8E	16g	16aa
.	.	16e	16gg
8g	8E	16g	16ff#
.	.	16e	16ee
8g	8E	16g	16dd#
.	.	16e	16ee
8g	8E	16g	16ff#
.	.	16e	16ee
=78	=78	=78	=78
8g	8B	16G	16r
.	.	16d	16dd
8f	8B	16f	16ee
.	.	16d	16ff
4f	8B	16f	16gg
.	.	16d	16aa
.	8B	16f	16bb
.	.	16d	16ccc
4f	8B	16f	16ddd
.	.	16d	16eee
.	8B	16G	16fff
.	.	16f	16ddd
=79	=79	=79	=79
8f	8c	16G	16r
.	.	16c	16ddd
8e	8C	16e	16eee
.	.	16c	16bb
4e	8C	16e	16ccc
.	.	16c	16gg
.	8C	16e	16ff
.	.	16c	16ee
4e	8C	16e	16dd
.	.	16c	16cc
.	8C	16e	16b
.	.	16c	16cc
=80	=80	=80	=80
8e	8G#	16B	16r
.	.	16d	16b
8d	8G#	16e	16cc
.	.	16d	16dd
4d	8G#	16B	16ee
.	.	16d	16ff#
.	8G#	16e	16gg#
.	.	16d	16aa
4d	8G#	16B	16bb
.	.	16d	16ccc
.	8G#	16e	16ddd
.	.	16d	16bb
=81	=81	=81	=81
8d	8A	16A	16r
.	.	16c	16bb
8c	8A	16e	16ccc
.	.	16c	16gg#
4c	8A	16A	16aa
.	.	16c	16ee
.	8A	16e	16dd
.	.	16c	16cc
4e	8A	16A	16b
.	.	16c	16a
.	8A	16e	16g#
.	.	16c	16a
=82	=82	=82	=82
8e	8F#	16A	16r
.	.	16c	16a
8d	8F#	16d	16b
.	.	16c	16cc
4d	8F#	16A	16dd
.	.	16c	16ee
.	8F#	16d	16ff#
.	.	16c	16gg
4c	8F#	16A	16aa
.	.	16c	16bb
.	8F#	16d	16ccc
.	.	16c	16aa
=83	=83	=83	=83
8c	8G	16G	16r
.	.	16B	16aa
8B	8G	16d	16bb
.	.	16B	16ff#
4B	8G	16G	16gg
.	.	16B	16dd
.	8G	16d	16cc
.	.	16B	16b
4c#	8E	16G	16a
.	.	16c#	16g
.	8E	16e	16f#
.	.	16g	16g
=84	=84	=84	=84
4d	4D	16d	4f#
.	.	16d	.
.	.	16d	.
.	.	16d	.
2r	2r	16f#	4.r
.	.	16d	.
.	.	16d	.
.	.	16d	.
.	.	16c	.
.	.	16d	.
.	.	16d	8f#
.	.	16d	.
=85	=85	=85	=85
2.r	2.r	16B	8g
.	.	16d	.
.	.	16A	8a
.	.	16d	.
.	.	16G	8b
.	.	16d	.
.	.	16A	8cc
.	.	16d	.
.	.	16B	8dd
.	.	16d	.
.	.	16G	8b
.	.	16d	.
=86	=86	=86	=86
4DD	4D	16d	4a
.	.	16d	.
.	.	16d	.
.	.	16d	.
2r	2r	16f#	4.r
.	.	16d	.
.	.	16d	.
.	.	16d	.
.	.	16c	.
.	.	16d	.
.	.	16d	8f#
.	.	16d	.
=87	=87	=87	=87
2.r	2.r	16B	8g
.	.	16d	.
.	.	16A	8a
.	.	16d	.
.	.	16G	8b
.	.	16d	.
.	.	16A	8cc
.	.	16d	.
.	.	16B	8dd
.	.	16d	.
.	.	16G	8b
.	.	16d	.
=88	=88	=88	=88
4DD	4D	16d	4a
.	.	16d	.
.	.	16d	.
.	.	16d	.
2r	2r	16f#	2r
.	.	16d	.
.	.	16d	.
.	.	16d	.
.	.	16d	.
.	.	16d	.
.	.	16d	.
.	.	16d	.
=89	=89	=89	=89
16D	4r	16d	4d
16F#	.	16d	.
16A	.	16d	.
16F#	.	16d	.
16A	4F#	16d	4cc
16F#	.	16d	.
16A	.	16d	.
16F#	.	16d	.
16D	4G	16d	4b
16G	.	16d	.
16B	.	16d	.
16G	.	16d	.
=90	=90	=90	=90
16D	4r	16d	4d
16A	.	16d	.
16c	.	16d	.
16A	.	16d	.
16c	4D	16d	4ff#
16A	.	16d	.
16c	.	16d	.
16A	.	16d	.
16D	4G	16d	4gg
16G	.	16d	.
16B	.	16d	.
16G	.	16d	.
=91	=91	=91	=91
16D	4r	16d	4d
16F#	.	16d	.
16A	.	16d	.
16F#	.	16d	.
16A	4F#	16d	4cc
16F#	.	16d	.
16A	.	16d	.
16F#	.	16d	.
16D	4G	16d	4b
16G	.	16d	.
16B	.	16d	.
16G	.	16d	.
=92	=92	=92	=92
16D	4r	16d	4d
16A	.	16d	.
16c	.	16d	.
16A	.	16d	.
16c	4D	16d	4ff#
16A	.	16d	.
16c	.	16d	.
16A	.	16d	.
16D	4G	16d	4gg
16G	.	16d	.
16B	.	16d	.
16G	.	16d	.
=93	=93	=93	=93
4c	4C	8.e	16r
.	.	.	16dd#
.	.	.	16ee
.	.	16g#	16b
2r	2r	4a	16cc
.	.	.	16g#
.	.	.	16a
.	.	.	16gg#
.	.	4r	16aa
.	.	.	16ee
.	.	.	16bb
.	.	.	16ccc
=94	=94	=94	=94
4B	4B	8.d	16r
.	.	.	16cc#
.	.	.	16dd
.	.	16f#	16a
2r	2r	4g	16b
.	.	.	16f#
.	.	.	16g
.	.	.	16ff#
.	.	4r	16gg
.	.	.	16cc#
.	.	.	16dd
.	.	.	16aa#
=95	=95	=95	=95
2r	2r	2r	16bb
.	.	.	16ff#
.	.	.	16gg
.	.	.	16ccc#
.	.	.	16ddd
.	.	.	16aa#
.	.	.	16bb
.	.	.	16ff#
8.r	8.r	8.r	16gg
.	.	.	16cc#
.	.	.	16dd
16BB	16g	16dd	16gg
=96	=96	=96	=96
4C	4g	8cc	8ee
.	.	16b	16dd
.	.	16a	16cc
4D	4d	4g	4b
4D	4d	4f#	4a
=97	=97	=97	=97
2.E	2B	16g	[2gg
.	.	16a	.
.	.	16b	.
.	.	16f#	.
.	.	16g	.
.	.	16d#	.
.	.	16e	.
.	.	16B	.
.	4A	16c#	16gg]
.	.	16e	16ee
.	.	16f#	16dd
.	.	16g	16cc#
=98	=98	=98	=98
4D	[4A	4g	4ee
8DD	8A]	8f#	16dd
.	.	.	16d
4.r	4.r	4.r	16f#
.	.	.	16a
.	.	.	16cc
.	.	.	16dd
.	.	.	16ff#
.	.	.	16aa
=99	=99	=99	=99
4r	4r	4r	[6..ccc
2D	2d	2a	.
.	.	.	48ccc]
.	.	.	16bb
.	.	.	16aa
.	.	.	16gg
.	.	.	16ff#
.	.	.	16ee
.	.	.	16dd
.	.	.	16cc
=100	=100	=100	=100
16r	2.d	2.g	2.b
16F#	.	.	.
16G	.	.	.
16D	.	.	.
16C	.	.	.
16BB	.	.	.
16AA	.	.	.
16GG	.	.	.
16FF#	.	.	.
16GG	.	.	.
16AA	.	.	.
16GG	.	.	.
=101	=101	=101	=101
16r	2G	2.b	2.gg
16D#	.	.	.
16E	.	.	.
16BB	.	.	.
16AA	.	.	.
16GG	.	.	.
16FF#	.	.	.
16EE	.	.	.
16DD#	4e	.	.
16EE	.	.	.
16FF#	.	.	.
16EE	.	.	.
=102	=102	=102	=102
16r	2c	2.cc	2.ee
16C	.	.	.
16D	.	.	.
16E	.	.	.
16F#	.	.	.
16G	.	.	.
16A	.	.	.
16B	.	.	.
16c	4a	.	.
16B	.	.	.
16A	.	.	.
16G	.	.	.
=103	=103	=103	=103
2F#	16a	16cc	[2dd
.	16g	16b	.
.	16f#	16a	.
.	16e	16g	.
.	16d	16f#	.
.	16c	16e	.
.	16B	16d	.
.	16A	16c	.
4G	8G	8B	16dd]
.	.	.	16ff#
.	8g	8b	16gg
.	.	.	16ee
=104	=104	=104	=104
2F#	16a	16cc	2dd
.	16g	16b	.
.	16f#	16a	.
.	16e	16g	.
.	16d	16f#	.
.	16c	16e	.
.	16B	16d	.
.	16A	16c	.
4G	8G	8B	24dd
.	.	.	24ee
.	.	.	24ff#
.	8g	8b	24gg
.	.	.	24ff#
.	.	.	24ee
=105	=105	=105	=105
16F#	2a	2cc	[2dd
16G	.	.	.
16A	.	.	.
16B	.	.	.
16c	.	.	.
16d	.	.	.
16e	.	.	.
16f#	.	.	.
8g	8g	8b	16dd]
.	.	.	16g
8g	8B	8g	16gg
.	.	.	16dd
=106	=106	=106	=106
2.g	4c	4G	16ee
.	.	.	16g
.	.	.	16gg
.	.	.	16ee
.	4B	2r	16dd
.	.	.	16b
.	.	.	16a
.	.	.	16g
.	8r	.	16f#
.	.	.	16g
.	8B	.	16gg
.	.	.	16dd
=107	=107	=107	=107
2g	4c	2r	16ee
.	.	.	16g
.	.	.	16gg
.	.	.	16ee
.	4B	.	16dd
.	.	.	16b
.	.	.	16a
.	.	.	16g
8r	8r	8r	16f#
.	.	.	16g
8BB	8B	8B	16dd
.	.	.	16d
=108	=108	=108	=108
4C	4c	4c	16d#
.	.	.	16e
.	.	.	16f
.	.	.	16f#
2r	2r	2r	16g
.	.	.	16a
.	.	.	16b-
.	.	.	16b
.	.	.	16cc
.	.	.	16cc#
.	.	.	16dd
.	.	.	16dd#
=109	=109	=109	=109
2.r	2.r	2r	4ee
.	.	.	4r
.	.	8.cc	8.ee
.	.	16cc	16ee
=110	=110	=110	=110
2r	2r	4cc	4ee
.	.	4r	4r
4DD	24C	8.f#	8.A
.	24F#	.	.
.	24A	.	.
.	24c	.	.
.	24A	.	.
.	.	16a	16c
.	24F#	.	.
=111	=111	=111	=111
4GG	16G	4g	4B
.	16G	.	.
.	16G	.	.
.	16G	.	.
4r	16B	4r	4r
.	16G	.	.
.	16G	.	.
.	16G	.	.
4DD	24C	8.f#	8.A
.	24F#	.	.
.	24A	.	.
.	24c	.	.
.	24A	.	.
.	.	32g	32B
.	24F#	.	.
.	.	32a	32c
=112	=112	=112	=112
4GG	16G	4g	4B
.	16G	.	.
.	16G	.	.
.	16G	.	.
4r	16B	4r	4r
.	16G	.	.
.	16G	.	.
.	16G	.	.
4DD	24C	8.cc	8.A
.	24F#	.	.
.	24A	.	.
.	24c	.	.
.	24A	.	.
.	.	16A	16c
.	24F#	.	.
=113	=113	=113	=113
[4GG	4F#	4A	4c
8GG]	8G	8G	8B
4.r	4.r	4.r	4.r
==	==	==	==
*-	*-	*-	*-
!!!RWG1: This file contains only pitch and duration data.
!!!RWG2: Transposing instruments are not transposed.
!!!RWG3: Spines may have incompatible meters.
!!!RWG4: Durations of rests and tied notes may be interpreted.
!!!RWG: Key is interpreted using the Humdrum key tool.
!!!GTL: 6 Divertimentos ("Sun")
!!!AFT: stage1
!!!END: 1997/04/15
!!!KEY: 2049284769
!!!EMD: Converted from MuseData to Humdrum Dec 16, 2000, by Andreas Kornstaedt using muse2kern.
!!!EMD: Manual editing by Craig Sapp, Nov 2001
